dist/img/svg/phone-ico.svg

<svg width="46" height="46" viewBox="0 0 46 46" fill="none" xmlns="http://www.w3.org/2000/svg">
<path d="M43.8454 34.9445L34.9397 29.005C33.8095 28.2573 32.2946 28.5033 31.459 29.5703L28.8649 32.906C28.5315 33.3456 27.9254 33.4731 27.4432 33.2052L26.9497 32.9331C25.3139 32.0414 23.2785 30.9313 19.1775 26.8286C15.0766 22.7259 13.9643 20.6888 13.0727 19.0559L12.8021 18.5624C12.5305 18.0801 12.6556 17.4715 13.0953 17.1354L16.4285 14.5419C17.495 13.7062 17.7414 12.1916 16.9946 11.061L11.0555 2.15457C10.2902 1.00327 8.75468 0.657656 7.56987 1.36994L3.8458 3.60715C2.67568 4.29511 1.8172 5.40929 1.45039 6.71621C0.109362 11.6028 1.1182 20.0362 13.5405 32.4608C23.4222 42.3425 30.7787 44.9999 35.835 44.9999C36.9987 45.0049 38.1578 44.8535 39.2812 44.5497C40.5883 44.1833 41.7025 43.3247 42.39 42.1541L44.6293 38.432C45.3426 37.2469 44.9972 35.7103 43.8454 34.9445Z" stroke="white" stroke-width="1.4"/>
</svg>

<svg width="46" height="46" viewBox="0 0 46 46" fill="none" xmlns="http://www.w3.org/2000/svg"><path d="M43.845 34.944l-8.905-5.939a2.6 2.6 0 00-3.481.565l-2.594 3.336a1.11 1.11 0 01-1.422.3l-.493-.273c-1.636-.892-3.671-2.002-7.773-6.104-4.1-4.103-5.213-6.14-6.104-7.773l-.27-.494a1.11 1.11 0 01.292-1.427l3.333-2.593a2.601 2.601 0 00.567-3.481l-5.94-8.906A2.586 2.586 0 007.57 1.37L3.846 3.607a5.253 5.253 0 00-2.396 3.11c-1.34 4.886-.332 13.32 12.09 25.744C23.422 42.343 30.78 45 35.836 45a12.987 12.987 0 003.446-.45 5.248 5.248 0 003.109-2.396l2.24-3.722a2.586 2.586 0 00-.785-3.488z" stroke="#fff" stroke-width="1.4"/></svg>
